packages/kaspersky-hexa-ui-icons/src/iconsSVGs/48/Error.svg

<svg xmlns="http://www.w3.org/2000/svg" width="48" height="48" fill="none" viewBox="0 0 48 48"><path fill="#ed2939" fill-rule="evenodd" d="M31.793 14.793 24 22.586l-7.793-7.793-1.414 1.414L22.586 24l-7.793 7.793 1.414 1.414L24 25.414l7.793 7.793 1.414-1.414L25.414 24l7.793-7.793zM24 46C11.869 46 2 36.131 2 24S11.869 2 24 2s22 9.869 22 22-9.869 22-22 22m0-46C10.767 0 0 10.767 0 24s10.767 24 24 24 24-10.767 24-24S37.233 0 24 0" clip-rule="evenodd"/></svg>

<svg width="48" height="48" viewBox="0 0 48 48" fill="none" xmlns="http://www.w3.org/2000/svg">
<path fill-rule="evenodd" clip-rule="evenodd" d="M31.793 14.793L24 22.586L16.207 14.793L14.793 16.207L22.586 24L14.793 31.793L16.207 33.207L24 25.414L31.793 33.207L33.207 31.793L25.414 24L33.207 16.207L31.793 14.793ZM24 46C11.869 46 2 36.131 2 24C2 11.869 11.869 2 24 2C36.131 2 46 11.869 46 24C46 36.131 36.131 46 24 46ZM24 0C10.767 0 0 10.767 0 24C0 37.233 10.767 48 24 48C37.233 48 48 37.233 48 24C48 10.767 37.233 0 24 0Z" fill="#ED2939"/>
</svg>
